case/harite-brd.svg

<?xml version="1.0" encoding="UTF-8" standalone="no"?>
<svg
   version="1.1"
   width="297.0022mm"
   height="210.0072mm"
   viewBox="0.0000 0.0000 297.0022 210.0072"
   id="svg1291"
   sodipodi:docname="harite-brd.svg"
   inkscape:version="1.3.2 (091e20ef0f, 2023-11-25)"
   xmlns:inkscape="http://www.inkscape.org/namespaces/inkscape"
   xmlns:sodipodi="http://sodipodi.sourceforge.net/DTD/sodipodi-0.dtd"
   xmlns="http://www.w3.org/2000/svg"
   xmlns:svg="http://www.w3.org/2000/svg">
  <defs
     id="defs1291" />
  <sodipodi:namedview
     id="namedview1291"
     pagecolor="#ffffff"
     bordercolor="#000000"
     borderopacity="0.25"
     inkscape:showpageshadow="2"
     inkscape:pageopacity="0.0"
     inkscape:pagecheckerboard="0"
     inkscape:deskcolor="#d1d1d1"
     inkscape:document-units="mm"
     inkscape:zoom="3.3638359"
     inkscape:cx="656.98805"
     inkscape:cy="503.29446"
     inkscape:window-width="1918"
     inkscape:window-height="1048"
     inkscape:window-x="0"
     inkscape:window-y="0"
     inkscape:window-maximized="1"
     inkscape:current-layer="g1040" />
  <title
     id="title1">SVG Image created as harite-brd.svg date 2024/05/29 20:48:16 </title>
  <desc
     id="desc1">Image generated by PCBNEW </desc>
  <g
     style="display:inline;fill:none;stroke:#ff26e2;stroke-width:0.05;stroke-linecap:round;stroke-linejoin:round;stroke-opacity:1"
     id="g1040"
     inkscape:label="hole">
    <circle
       cx="196.89999"
       cy="130.7"
       r="2.45"
       id="circle1040" />
  </g>
  <g
     style="display:inline;fill:none;stroke:#ff26e2;stroke-width:0.1;stroke-linecap:round;stroke-linejoin:round;stroke-opacity:1"
     id="g1044"
     inkscape:label="switch">
    <path
       d="m 142.0804,83.495 8.4146,-8.4146"
       id="path1041" />
    <path
       d="M 149.505,90.9196 142.0804,83.495"
       id="path1042" />
    <path
       d="m 150.495,75.0804 7.4246,7.4246"
       id="path1043" />
    <path
       d="m 157.9196,82.505 -8.4146,8.4146"
       id="path1044" />
  </g>
  <g
     style="display:inline;fill:none;stroke:#ff26e2;stroke-width:0.05;stroke-linecap:round;stroke-linejoin:round;stroke-opacity:1"
     id="g1132"
     inkscape:label="hole">
    <circle
       cx="186.7"
       cy="87.400002"
       r="2.45"
       id="circle1048" />
    <circle
       cx="91.900002"
       cy="107.1"
       r="2.45"
       id="circle1100" />
    <circle
       cx="137.5667"
       cy="84.666702"
       r="2.45"
       id="circle1104" />
  </g>
  <g
     style="display:inline;fill:none;stroke:#ff26e2;stroke-width:0.1;stroke-linecap:round;stroke-linejoin:round;stroke-opacity:1"
     id="g1140"
     inkscape:label="switch">
    <path
       d="m 167.0804,92.495 8.4146,-8.4146"
       id="path1133" />
    <path
       d="M 174.505,99.9196 167.0804,92.495"
       id="path1134" />
    <path
       d="m 175.495,84.0804 7.4246,7.4246"
       id="path1135" />
    <path
       d="m 182.9196,91.505 -8.4146,8.4146"
       id="path1136" />
    <path
       d="m 117.0804,86.495 8.4146,-8.4146"
       id="path1137" />
    <path
       d="M 124.505,93.9196 117.0804,86.495"
       id="path1138" />
    <path
       d="m 125.495,78.0804 7.4246,7.4246"
       id="path1139" />
    <path
       d="m 132.9196,85.505 -8.4146,8.4146"
       id="path1140" />
  </g>
  <g
     style="fill:none;  stroke:#FF26E2; stroke-width:0.0500; stroke-opacity:1;  stroke-linecap:round; stroke-linejoin:round;"
     id="g1141"
     inkscape:label="hole">
    <circle
       cx="104.6000"
       cy="82.7000"
       id="circle1140"
       r="2.4500" />
  </g>
  <g
     style="display:inline;fill:none;stroke:#ff26e2;stroke-width:0.1;stroke-linecap:round;stroke-linejoin:round;stroke-opacity:1"
     id="g1148"
     inkscape:label="switch">
    <path
       d="m 92.0804,100.495 8.4146,-8.4146"
       id="path1141" />
    <path
       d="M 99.505,107.9196 92.0804,100.495"
       id="path1142" />
    <path
       d="m 100.495,92.0804 7.4246,7.4246"
       id="path1143" />
    <path
       d="m 107.9196,99.505 -8.4146,8.4146"
       id="path1144" />
    <path
       d="m 187.0804,147.495 8.4146,-8.4146"
       id="path1145" />
    <path
       d="m 194.505,154.9196 -7.4246,-7.4246"
       id="path1146" />
    <path
       d="m 195.495,139.0804 7.4246,7.4246"
       id="path1147" />
    <path
       d="m 202.9196,146.505 -8.4146,8.4146"
       id="path1148" />
  </g>
  <g
     style="display:inline;fill:none;stroke:#c2c2c2;stroke-width:0.15;stroke-linecap:round;stroke-linejoin:round;stroke-opacity:1"
     id="g1255"
     inkscape:label="mcu">
    <g
       transform="rotate(-90,214.985,117.25)"
       id="g1149">
      <text
         x="214.985"
         y="117.75"
         textLength="19.0119"
         font-size="1.3333px"
         lengthAdjust="spacingAndGlyphs"
         text-anchor="middle"
         opacity="0"
         id="text1148">HRO-TYPE-C-31-M-12</text>
    </g>
    <path
       style="fill:none;stroke:#c2c2c2;stroke-width:0.12;stroke-linecap:round;stroke-linejoin:round;stroke-opacity:1"
       d="m 192.25,83.25 h 18 v 23.5 h -18 z"
       id="path1255" />
  </g>
  <g
     style="display:inline;fill:none;stroke:#c2c2c2;stroke-width:0.15;stroke-linecap:round;stroke-linejoin:round;stroke-opacity:1"
     id="g1259"
     inkscape:label="usb">
    <path
       d="m 206.535,121.72 v -8.94"
       id="path1256" />
    <path
       d="m 213.835,112.78 h -7.3"
       id="path1257" />
    <path
       d="m 213.835,121.72 h -7.3"
       id="path1258" />
    <path
       d="m 213.835,121.72 v -8.94"
       id="path1259" />
  </g>
  <g
     style="display:inline;fill:none;stroke:#d0d2cd;stroke-width:0.05;stroke-linecap:round;stroke-linejoin:round;stroke-opacity:1"
     id="g1291"
     inkscape:label="pcb">
    <path
       d="m 136.6842,96.5 h 28.6604"
       id="path1260" />
    <path
       d="m 182.65,113.323 a 1,1 0 0 0 -0.3036,-0.7176"
       id="path1261" />
    <path
       d="M 114.8686,73.5603 88.3331,85.7325"
       id="path1262" />
    <path
       d="m 121.5658,111.75 a 1,1 0 0 0 0.7307,-0.3173"
       id="path1263" />
    <path
       d="m 136.6842,96.5 a 1,1 0 0 0 -0.7307,0.3173"
       id="path1264" />
    <path
       d="m 201.3183,128.25 a 1,1 0 0 0 -1,0.9955"
       id="path1265" />
    <path
       d="m 198.9061,160.3685 10.9728,-9.813"
       id="path1266" />
    <path
       d="m 182.65,144.9867 a 1,1 0 0 0 0.2918,0.706"
       id="path1267" />
    <path
       d="m 212.7,128.25 a 1,1 0 0 0 1,-1"
       id="path1268" />
    <path
       d="m 115.143,73.4794 a 0.9997,0.9997 0 0 0 -0.2744,0.0809"
       id="path1269" />
    <path
       d="M 213.7,127.25 V 83.8"
       id="path1270" />
    <path
       d="m 197.5313,160.3291 a 1,1 0 0 0 1.3748,0.0394"
       id="path1271" />
    <path
       d="m 182.65,113.323 v 31.6637"
       id="path1272" />
    <path
       d="M 201.3183,128.25 H 212.7"
       id="path1273" />
    <path
       d="M 87.75,86.6415 V 110.75"
       id="path1274" />
    <path
       d="m 210.0656,149.2889 -9.6177,-15.7468"
       id="path1275" />
    <path
       d="M 180.6214,82.7287 A 1,1 0 0 0 180.9923,82.8"
       id="path1276" />
    <path
       d="m 122.2965,111.4327 13.657,-14.6154"
       id="path1277" />
    <path
       d="M 180.6214,82.7287 146.4985,69.0993"
       id="path1278" />
    <path
       d="m 182.9418,145.6927 14.5894,14.6364"
       id="path1279" />
    <path
       d="m 146.4985,69.0993 a 1.0002,1.0002 0 0 0 -0.5134,-0.0612"
       id="path1280" />
    <path
       d="m 213.7,83.8 a 1,1 0 0 0 -1,-1"
       id="path1281" />
    <path
       d="m 87.75,110.75 a 1,1 0 0 0 1,1"
       id="path1282" />
    <path
       d="m 200.3013,133.0163 0.017,-3.7708"
       id="path1283" />
    <path
       d="M 88.3331,85.7326 A 1,1 0 0 0 87.75,86.6415"
       id="path1284" />
    <path
       d="m 88.75,111.75 h 32.8158"
       id="path1285" />
    <path
       d="M 145.9851,69.0381 115.143,73.4794"
       id="path1286" />
    <path
       d="M 166.0409,96.7824 A 0.9998,0.9998 0 0 0 165.3446,96.5"
       id="path1287" />
    <path
       d="m 209.8789,150.5555 a 1,1 0 0 0 0.1867,-1.2666"
       id="path1288" />
    <path
       d="m 200.3013,133.0163 a 1,1 0 0 0 0.1466,0.5258"
       id="path1289" />
    <path
       d="M 212.7,82.8 H 180.9923"
       id="path1290" />
    <path
       d="m 166.041,96.7824 16.3054,15.823"
       id="path1291" />
  </g>
</svg>

<?xml version="1.0" encoding="UTF-8" standalone="no"?>
<svg
   version="1.1"
   width="297.0022mm"
   height="210.0072mm"
   viewBox="0.0000 0.0000 297.0022 210.0072"
   id="svg1291"
   sodipodi:docname="harite-brd.svg"
   inkscape:version="1.3.2 (091e20ef0f, 2023-11-25)"
   xmlns:inkscape="http://www.inkscape.org/namespaces/inkscape"
   xmlns:sodipodi="http://sodipodi.sourceforge.net/DTD/sodipodi-0.dtd"
   xmlns="http://www.w3.org/2000/svg"
   xmlns:svg="http://www.w3.org/2000/svg">
  <defs
     id="defs1291" />
  <sodipodi:namedview
     id="namedview1291"
     pagecolor="#ffffff"
     bordercolor="#000000"
     borderopacity="0.25"
     inkscape:showpageshadow="2"
     inkscape:pageopacity="0.0"
     inkscape:pagecheckerboard="0"
     inkscape:deskcolor="#d1d1d1"
     inkscape:document-units="mm"
     inkscape:zoom="3.3638359"
     inkscape:cx="709.01199"
     inkscape:cy="388.99043"
     inkscape:window-width="1918"
     inkscape:window-height="1025"
     inkscape:window-x="0"
     inkscape:window-y="0"
     inkscape:window-maximized="1"
     inkscape:current-layer="g1132" />
  <title
     id="title1">SVG Image created as harite-brd.svg date 2024/05/29 20:48:16 </title>
  <desc
     id="desc1">Image generated by PCBNEW </desc>
  <g
     style="fill:#000000; fill-opacity:1.0000;stroke:#000000; stroke-opacity:1.0000; stroke-linecap:round; stroke-linejoin:round;"
     transform="translate(0 0) scale(1 1)"
     id="g1" />
  <g
     style="fill:none;  stroke:#000000; stroke-width:0.3000; stroke-opacity:1;  stroke-linecap:round; stroke-linejoin:round;"
     id="g1019">
    <text
       x="178.0022"
       y="180.7572"
       textLength="0.9000"
       font-size="2.0000"
       lengthAdjust="spacingAndGlyphs"
       text-anchor="start"
       opacity="0"
       id="text1017" />
    <g
       class="stroked-text"
       id="g1018">
      <desc
         id="desc1017" />
    </g>
  </g>
  <g
     style="fill:none;  stroke:#000000; stroke-width:0.1500; stroke-opacity:1;  stroke-linecap:round; stroke-linejoin:round;"
     id="g1021">
    <text
       x="178.0022"
       y="177.7572"
       textLength="0.4500"
       font-size="2.0000"
       lengthAdjust="spacingAndGlyphs"
       text-anchor="start"
       opacity="0"
       id="text1019" />
    <g
       class="stroked-text"
       id="g1020">
      <desc
         id="desc1019" />
    </g>
  </g>
  <g
     style="fill:none;  stroke:#000000; stroke-width:0.1500; stroke-opacity:1;  stroke-linecap:round; stroke-linejoin:round;"
     id="g1023">
    <text
       x="178.0022"
       y="174.7572"
       textLength="0.4500"
       font-size="2.0000"
       lengthAdjust="spacingAndGlyphs"
       text-anchor="start"
       opacity="0"
       id="text1021" />
    <g
       class="stroked-text"
       id="g1022">
      <desc
         id="desc1021" />
    </g>
  </g>
  <g
     style="fill:none;  stroke:#000000; stroke-width:0.1500; stroke-opacity:1;  stroke-linecap:round; stroke-linejoin:round;"
     id="g1025">
    <text
       x="178.0022"
       y="171.7572"
       textLength="0.4500"
       font-size="2.0000"
       lengthAdjust="spacingAndGlyphs"
       text-anchor="start"
       opacity="0"
       id="text1023" />
    <g
       class="stroked-text"
       id="g1024">
      <desc
         id="desc1023" />
    </g>
  </g>
  <g
     style="fill:none;  stroke:#000000; stroke-width:0.1500; stroke-opacity:1;  stroke-linecap:round; stroke-linejoin:round;"
     id="g1027">
    <text
       x="178.0022"
       y="168.7572"
       textLength="0.4500"
       font-size="2.0000"
       lengthAdjust="spacingAndGlyphs"
       text-anchor="start"
       opacity="0"
       id="text1025" />
    <g
       class="stroked-text"
       id="g1026">
      <desc
         id="desc1025" />
    </g>
  </g>
  <g
     style="fill:none;  stroke:#FF26E2; stroke-width:0.1000; stroke-opacity:1;  stroke-linecap:round; stroke-linejoin:round;"
     id="g1044">
    <path
       d="M142.0804 83.4950 L150.4950 75.0804 "
       id="path1041" />
    <path
       d="M149.5050 90.9196 L142.0804 83.4950 "
       id="path1042" />
    <path
       d="M150.4950 75.0804 L157.9196 82.5050 "
       id="path1043" />
    <path
       d="M157.9196 82.5050 L149.5050 90.9196 "
       id="path1044" />
  </g>
  <g
     style="fill:none;  stroke:#FF26E2; stroke-width:0.0500; stroke-opacity:1;  stroke-linecap:round; stroke-linejoin:round;"
     id="g1132">
    <circle
       cx="186.7000"
       cy="87.4000"
       r="2.4500"
       id="circle1048" />
    <circle
       cx="91.9000"
       cy="107.1000"
       r="2.4500"
       id="circle1100" />
    <circle
       cx="137.5667"
       cy="84.6667"
       r="2.4500"
       id="circle1104" />
  </g>
  <g
     style="fill:none;  stroke:#FF26E2; stroke-width:0.1000; stroke-opacity:1;  stroke-linecap:round; stroke-linejoin:round;"
     id="g1140">
    <path
       d="M167.0804 92.4950 L175.4950 84.0804 "
       id="path1133" />
    <path
       d="M174.5050 99.9196 L167.0804 92.4950 "
       id="path1134" />
    <path
       d="M175.4950 84.0804 L182.9196 91.5050 "
       id="path1135" />
    <path
       d="M182.9196 91.5050 L174.5050 99.9196 "
       id="path1136" />
    <path
       d="M117.0804 86.4950 L125.4950 78.0804 "
       id="path1137" />
    <path
       d="M124.5050 93.9196 L117.0804 86.4950 "
       id="path1138" />
    <path
       d="M125.4950 78.0804 L132.9196 85.5050 "
       id="path1139" />
    <path
       d="M132.9196 85.5050 L124.5050 93.9196 "
       id="path1140" />
  </g>
  <g
     style="fill:none;  stroke:#FF26E2; stroke-width:0.0500; stroke-opacity:1;  stroke-linecap:round; stroke-linejoin:round;"
     id="g1141">
    <circle
       cx="104.6000"
       cy="82.7000"
       r="2.4500"
       id="circle1140" />
  </g>
  <g
     style="fill:none;  stroke:#FF26E2; stroke-width:0.1000; stroke-opacity:1;  stroke-linecap:round; stroke-linejoin:round;"
     id="g1148">
    <path
       d="M92.0804 100.4950 L100.4950 92.0804 "
       id="path1141" />
    <path
       d="M99.5050 107.9196 L92.0804 100.4950 "
       id="path1142" />
    <path
       d="M100.4950 92.0804 L107.9196 99.5050 "
       id="path1143" />
    <path
       d="M107.9196 99.5050 L99.5050 107.9196 "
       id="path1144" />
    <path
       d="M187.0804 147.4950 L195.4950 139.0804 "
       id="path1145" />
    <path
       d="M194.5050 154.9196 L187.0804 147.4950 "
       id="path1146" />
    <path
       d="M195.4950 139.0804 L202.9196 146.5050 "
       id="path1147" />
    <path
       d="M202.9196 146.5050 L194.5050 154.9196 "
       id="path1148" />
  </g>
  <g
     style="fill:none;  stroke:#C2C2C2; stroke-width:0.1500; stroke-opacity:1;  stroke-linecap:round; stroke-linejoin:round;"
     id="g1255">
    <g
       transform="rotate(-90.000000 214.9850 117.2500)"
       id="g1149">
      <text
         x="214.9850"
         y="117.7500"
         textLength="19.0119"
         font-size="1.3333"
         lengthAdjust="spacingAndGlyphs"
         text-anchor="middle"
         opacity="0"
         id="text1148">HRO-TYPE-C-31-M-12</text>
    </g>
    <path
       style="fill:none;  stroke:#C2C2C2; stroke-width:0.1200; stroke-opacity:1;  stroke-linecap:round; stroke-linejoin:round;fill:none"
       d="M 192.2500,83.2500 210.2500,83.2500 210.2500,106.7500 192.2500,106.7500 Z"
       id="path1255" />
  </g>
  <g
     style="fill:none;  stroke:#C2C2C2; stroke-width:0.1500; stroke-opacity:1;  stroke-linecap:round; stroke-linejoin:round;"
     id="g1259">
    <path
       d="M206.5350 121.7200 L206.5350 112.7800 "
       id="path1256" />
    <path
       d="M213.8350 112.7800 L206.5350 112.7800 "
       id="path1257" />
    <path
       d="M213.8350 121.7200 L206.5350 121.7200 "
       id="path1258" />
    <path
       d="M213.8350 121.7200 L213.8350 112.7800 "
       id="path1259" />
  </g>
  <g
     style="fill:none;  stroke:#D0D2CD; stroke-width:0.0500; stroke-opacity:1;  stroke-linecap:round; stroke-linejoin:round;"
     id="g1291">
    <path
       d="M136.6842 96.5000 L165.3446 96.5000 "
       id="path1260" />
    <path
       d="M182.6500 113.3230 A1.0000 1.0000 0.0 0 0 182.3464 112.6054"
       id="path1261" />
    <path
       d="M114.8686 73.5603 L88.3331 85.7325 "
       id="path1262" />
    <path
       d="M121.5658 111.7500 A1.0000 1.0000 0.0 0 0 122.2965 111.4327"
       id="path1263" />
    <path
       d="M136.6842 96.5000 A1.0000 1.0000 0.0 0 0 135.9535 96.8173"
       id="path1264" />
    <path
       d="M201.3183 128.2500 A1.0000 1.0000 0.0 0 0 200.3183 129.2455"
       id="path1265" />
    <path
       d="M198.9061 160.3685 L209.8789 150.5555 "
       id="path1266" />
    <path
       d="M182.6500 144.9867 A1.0000 1.0000 0.0 0 0 182.9418 145.6927"
       id="path1267" />
    <path
       d="M212.7000 128.2500 A1.0000 1.0000 0.0 0 0 213.7000 127.2500"
       id="path1268" />
    <path
       d="M115.1430 73.4794 A0.9997 0.9997 0.0 0 0 114.8686 73.5603"
       id="path1269" />
    <path
       d="M213.7000 127.2500 L213.7000 83.8000 "
       id="path1270" />
    <path
       d="M197.5313 160.3291 A1.0000 1.0000 0.0 0 0 198.9061 160.3685"
       id="path1271" />
    <path
       d="M182.6500 113.3230 L182.6500 144.9867 "
       id="path1272" />
    <path
       d="M201.3183 128.2500 L212.7000 128.2500 "
       id="path1273" />
    <path
       d="M87.7500 86.6415 L87.7500 110.7500 "
       id="path1274" />
    <path
       d="M210.0656 149.2889 L200.4479 133.5421 "
       id="path1275" />
    <path
       d="M180.6214 82.7287 A1.0000 1.0000 0.0 0 0 180.9923 82.8000"
       id="path1276" />
    <path
       d="M122.2965 111.4327 L135.9535 96.8173 "
       id="path1277" />
    <path
       d="M180.6214 82.7287 L146.4985 69.0993 "
       id="path1278" />
    <path
       d="M182.9418 145.6927 L197.5312 160.3291 "
       id="path1279" />
    <path
       d="M146.4985 69.0993 A1.0002 1.0002 0.0 0 0 145.9851 69.0381"
       id="path1280" />
    <path
       d="M213.7000 83.8000 A1.0000 1.0000 0.0 0 0 212.7000 82.8000"
       id="path1281" />
    <path
       d="M87.7500 110.7500 A1.0000 1.0000 0.0 0 0 88.7500 111.7500"
       id="path1282" />
    <path
       d="M200.3013 133.0163 L200.3183 129.2455 "
       id="path1283" />
    <path
       d="M88.3331 85.7326 A1.0000 1.0000 0.0 0 0 87.7500 86.6415"
       id="path1284" />
    <path
       d="M88.7500 111.7500 L121.5658 111.7500 "
       id="path1285" />
    <path
       d="M145.9851 69.0381 L115.1430 73.4794 "
       id="path1286" />
    <path
       d="M166.0409 96.7824 A0.9998 0.9998 0.0 0 0 165.3446 96.5000"
       id="path1287" />
    <path
       d="M209.8789 150.5555 A1.0000 1.0000 0.0 0 0 210.0656 149.2889"
       id="path1288" />
    <path
       d="M200.3013 133.0163 A1.0000 1.0000 0.0 0 0 200.4479 133.5421"
       id="path1289" />
    <path
       d="M212.7000 82.8000 L180.9923 82.8000 "
       id="path1290" />
    <path
       d="M166.0410 96.7824 L182.3464 112.6054 "
       id="path1291" />
  </g>
</svg>
